apps/web/src/images/integrations/logo-onelogin-badge-color.svg

<svg width="600" height="600" fill="none" xmlns="http://www.w3.org/2000/svg"><g clip-path="url(#a)"><circle cx="300" cy="300" r="300" fill="#1C1F2A"/><path d="M229.85 204.478a8.955 8.955 0 0 0-8.955 8.955v53.731a8.955 8.955 0 0 0 8.955 8.955h43.283V405.97a8.955 8.955 0 0 0 8.956 8.955h53.731a8.955 8.955 0 0 0 8.955-8.955V213.433a8.955 8.955 0 0 0-8.955-8.955H229.85Z" fill="#fff"/></g><defs><clipPath id="a"><path fill="#fff" d="M0 0h600v600H0z"/></clipPath></defs></svg>

<svg width="600" height="600" viewBox="0 0 600 600" fill="none" xmlns="http://www.w3.org/2000/svg">
<g clip-path="url(#clip0_8112_5807)">
<circle cx="300" cy="300" r="300" fill="#1C1F2A"/>
<path d="M229.85 204.478C224.904 204.478 220.895 208.487 220.895 213.433V267.164C220.895 272.11 224.904 276.119 229.85 276.119H273.133V405.97C273.133 410.916 277.143 414.925 282.089 414.925H335.82C340.765 414.925 344.775 410.916 344.775 405.97V213.433C344.775 208.487 340.765 204.478 335.82 204.478H229.85Z" fill="white"/>
</g>
<defs>
<clipPath id="clip0_8112_5807">
<rect width="600" height="600" fill="white"/>
</clipPath>
</defs>
</svg>
